img/ModelS12.svg

<svg width="359" height="68" viewBox="0 0 359 68" fill="none" xmlns="http://www.w3.org/2000/svg">
<path d="M58.33 67L58.24 25.24L37.54 59.8H32.32L11.62 25.78V67H0.46V4H10.09L35.11 45.76L59.68 4H69.31L69.4 67H58.33ZM106.937 67.63C102.077 67.63 97.697 66.58 93.797 64.48C89.897 62.38 86.837 59.47 84.617 55.75C82.457 51.97 81.377 47.71 81.377 42.97C81.377 38.23 82.457 34 84.617 30.28C86.837 26.56 89.897 23.65 93.797 21.55C97.697 19.45 102.077 18.4 106.937 18.4C111.857 18.4 116.267 19.45 120.167 21.55C124.067 23.65 127.097 26.56 129.257 30.28C131.477 34 132.587 38.23 132.587 42.97C132.587 47.71 131.477 51.97 129.257 55.75C127.097 59.47 124.067 62.38 120.167 64.48C116.267 66.58 111.857 67.63 106.937 67.63ZM106.937 58C111.077 58 114.497 56.62 117.197 53.86C119.897 51.1 121.247 47.47 121.247 42.97C121.247 38.47 119.897 34.84 117.197 32.08C114.497 29.32 111.077 27.94 106.937 27.94C102.797 27.94 99.377 29.32 96.677 32.08C94.037 34.84 92.717 38.47 92.717 42.97C92.717 47.47 94.037 51.1 96.677 53.86C99.377 56.62 102.797 58 106.937 58ZM190.415 0.219996V67H179.615V60.79C177.755 63.07 175.445 64.78 172.685 65.92C169.985 67.06 166.985 67.63 163.685 67.63C159.065 67.63 154.895 66.61 151.175 64.57C147.515 62.53 144.635 59.65 142.535 55.93C140.435 52.15 139.385 47.83 139.385 42.97C139.385 38.11 140.435 33.82 142.535 30.1C144.635 26.38 147.515 23.5 151.175 21.46C154.895 19.42 159.065 18.4 163.685 18.4C166.865 18.4 169.775 18.94 172.415 20.02C175.055 21.1 177.305 22.72 179.165 24.88V0.219996H190.415ZM165.035 58C167.735 58 170.165 57.4 172.325 56.2C174.485 54.94 176.195 53.17 177.455 50.89C178.715 48.61 179.345 45.97 179.345 42.97C179.345 39.97 178.715 37.33 177.455 35.05C176.195 32.77 174.485 31.03 172.325 29.83C170.165 28.57 167.735 27.94 165.035 27.94C162.335 27.94 159.905 28.57 157.745 29.83C155.585 31.03 153.875 32.77 152.615 35.05C151.355 37.33 150.725 39.97 150.725 42.97C150.725 45.97 151.355 48.61 152.615 50.89C153.875 53.17 155.585 54.94 157.745 56.2C159.905 57.4 162.335 58 165.035 58ZM250.312 43.24C250.312 44.02 250.252 45.13 250.132 46.57H212.422C213.082 50.11 214.792 52.93 217.552 55.03C220.372 57.07 223.852 58.09 227.992 58.09C233.272 58.09 237.622 56.35 241.042 52.87L247.072 59.8C244.912 62.38 242.182 64.33 238.882 65.65C235.582 66.97 231.862 67.63 227.722 67.63C222.442 67.63 217.792 66.58 213.772 64.48C209.752 62.38 206.632 59.47 204.412 55.75C202.252 51.97 201.172 47.71 201.172 42.97C201.172 38.29 202.222 34.09 204.322 30.37C206.482 26.59 209.452 23.65 213.232 21.55C217.012 19.45 221.272 18.4 226.012 18.4C230.692 18.4 234.862 19.45 238.522 21.55C242.242 23.59 245.122 26.5 247.162 30.28C249.262 34 250.312 38.32 250.312 43.24ZM226.012 27.4C222.412 27.4 219.352 28.48 216.832 30.64C214.372 32.74 212.872 35.56 212.332 39.1H239.602C239.122 35.62 237.652 32.8 235.192 30.64C232.732 28.48 229.672 27.4 226.012 27.4ZM261.118 0.219996H272.368V67H261.118V0.219996ZM332.617 67.9C327.757 67.9 323.047 67.21 318.487 65.83C313.987 64.45 310.417 62.62 307.777 60.34L311.827 51.25C314.407 53.29 317.557 54.97 321.277 56.29C325.057 57.55 328.837 58.18 332.617 58.18C337.297 58.18 340.777 57.43 343.057 55.93C345.397 54.43 346.567 52.45 346.567 49.99C346.567 48.19 345.907 46.72 344.587 45.58C343.327 44.38 341.707 43.45 339.727 42.79C337.747 42.13 335.047 41.38 331.627 40.54C326.827 39.4 322.927 38.26 319.927 37.12C316.987 35.98 314.437 34.21 312.277 31.81C310.177 29.35 309.127 26.05 309.127 21.91C309.127 18.43 310.057 15.28 311.917 12.46C313.837 9.58 316.687 7.3 320.467 5.62C324.307 3.94 328.987 3.1 334.507 3.1C338.347 3.1 342.127 3.58 345.847 4.54C349.567 5.5 352.777 6.88 355.477 8.68L351.787 17.77C349.027 16.15 346.147 14.92 343.147 14.08C340.147 13.24 337.237 12.82 334.417 12.82C329.797 12.82 326.347 13.6 324.067 15.16C321.847 16.72 320.737 18.79 320.737 21.37C320.737 23.17 321.367 24.64 322.627 25.78C323.947 26.92 325.597 27.82 327.577 28.48C329.557 29.14 332.257 29.89 335.677 30.73C340.357 31.81 344.197 32.95 347.197 34.15C350.197 35.29 352.747 37.06 354.847 39.46C357.007 41.86 358.087 45.1 358.087 49.18C358.087 52.66 357.127 55.81 355.207 58.63C353.347 61.45 350.497 63.7 346.657 65.38C342.817 67.06 338.137 67.9 332.617 67.9Z" fill="black"/>
</svg>

<svg width="359" height="68" fill="none" xmlns="http://www.w3.org/2000/svg"><path d="M58.33 67l-.09-41.76-20.7 34.56h-5.22l-20.7-34.02V67H.46V4h9.63l25.02 41.76L59.68 4h9.63l.09 63H58.33zm48.607.63c-4.86 0-9.24-1.05-13.14-3.15-3.9-2.1-6.96-5.01-9.18-8.73-2.16-3.78-3.24-8.04-3.24-12.78s1.08-8.97 3.24-12.69c2.22-3.72 5.28-6.63 9.18-8.73 3.9-2.1 8.28-3.15 13.14-3.15 4.92 0 9.33 1.05 13.23 3.15 3.9 2.1 6.93 5.01 9.09 8.73 2.22 3.72 3.33 7.95 3.33 12.69 0 4.74-1.11 9-3.33 12.78-2.16 3.72-5.19 6.63-9.09 8.73-3.9 2.1-8.31 3.15-13.23 3.15zm0-9.63c4.14 0 7.56-1.38 10.26-4.14s4.05-6.39 4.05-10.89c0-4.5-1.35-8.13-4.05-10.89-2.7-2.76-6.12-4.14-10.26-4.14s-7.56 1.38-10.26 4.14c-2.64 2.76-3.96 6.39-3.96 10.89 0 4.5 1.32 8.13 3.96 10.89 2.7 2.76 6.12 4.14 10.26 4.14zM190.415.22V67h-10.8v-6.21c-1.86 2.28-4.17 3.99-6.93 5.13-2.7 1.14-5.7 1.71-9 1.71-4.62 0-8.79-1.02-12.51-3.06-3.66-2.04-6.54-4.92-8.64-8.64-2.1-3.78-3.15-8.1-3.15-12.96 0-4.86 1.05-9.15 3.15-12.87 2.1-3.72 4.98-6.6 8.64-8.64 3.72-2.04 7.89-3.06 12.51-3.06 3.18 0 6.09.54 8.73 1.62a17.56 17.56 0 0 1 6.75 4.86V.22h11.25zM165.035 58c2.7 0 5.13-.6 7.29-1.8 2.16-1.26 3.87-3.03 5.13-5.31 1.26-2.28 1.89-4.92 1.89-7.92s-.63-5.64-1.89-7.92c-1.26-2.28-2.97-4.02-5.13-5.22-2.16-1.26-4.59-1.89-7.29-1.89s-5.13.63-7.29 1.89c-2.16 1.2-3.87 2.94-5.13 5.22-1.26 2.28-1.89 4.92-1.89 7.92s.63 5.64 1.89 7.92c1.26 2.28 2.97 4.05 5.13 5.31 2.16 1.2 4.59 1.8 7.29 1.8zm85.277-14.76c0 .78-.06 1.89-.18 3.33h-37.71c.66 3.54 2.37 6.36 5.13 8.46 2.82 2.04 6.3 3.06 10.44 3.06 5.28 0 9.63-1.74 13.05-5.22l6.03 6.93c-2.16 2.58-4.89 4.53-8.19 5.85-3.3 1.32-7.02 1.98-11.16 1.98-5.28 0-9.93-1.05-13.95-3.15-4.02-2.1-7.14-5.01-9.36-8.73-2.16-3.78-3.24-8.04-3.24-12.78 0-4.68 1.05-8.88 3.15-12.6 2.16-3.78 5.13-6.72 8.91-8.82 3.78-2.1 8.04-3.15 12.78-3.15 4.68 0 8.85 1.05 12.51 3.15 3.72 2.04 6.6 4.95 8.64 8.73 2.1 3.72 3.15 8.04 3.15 12.96zm-24.3-15.84c-3.6 0-6.66 1.08-9.18 3.24-2.46 2.1-3.96 4.92-4.5 8.46h27.27c-.48-3.48-1.95-6.3-4.41-8.46-2.46-2.16-5.52-3.24-9.18-3.24zM261.118.22h11.25V67h-11.25V.22zm71.499 67.68c-4.86 0-9.57-.69-14.13-2.07-4.5-1.38-8.07-3.21-10.71-5.49l4.05-9.09c2.58 2.04 5.73 3.72 9.45 5.04 3.78 1.26 7.56 1.89 11.34 1.89 4.68 0 8.16-.75 10.44-2.25 2.34-1.5 3.51-3.48 3.51-5.94 0-1.8-.66-3.27-1.98-4.41-1.26-1.2-2.88-2.13-4.86-2.79-1.98-.66-4.68-1.41-8.1-2.25-4.8-1.14-8.7-2.28-11.7-3.42-2.94-1.14-5.49-2.91-7.65-5.31-2.1-2.46-3.15-5.76-3.15-9.9 0-3.48.93-6.63 2.79-9.45 1.92-2.88 4.77-5.16 8.55-6.84 3.84-1.68 8.52-2.52 14.04-2.52 3.84 0 7.62.48 11.34 1.44 3.72.96 6.93 2.34 9.63 4.14l-3.69 9.09a36.403 36.403 0 0 0-8.64-3.69c-3-.84-5.91-1.26-8.73-1.26-4.62 0-8.07.78-10.35 2.34-2.22 1.56-3.33 3.63-3.33 6.21 0 1.8.63 3.27 1.89 4.41 1.32 1.14 2.97 2.04 4.95 2.7 1.98.66 4.68 1.41 8.1 2.25 4.68 1.08 8.52 2.22 11.52 3.42 3 1.14 5.55 2.91 7.65 5.31 2.16 2.4 3.24 5.64 3.24 9.72 0 3.48-.96 6.63-2.88 9.45-1.86 2.82-4.71 5.07-8.55 6.75-3.84 1.68-8.52 2.52-14.04 2.52z" fill="#000"/></svg>
